icons/numix/32x32/mimetypes/text-x-copying.svg

<?xml version="1.0" encoding="UTF-8" standalone="no"?>
<svg
   xmlns:dc="http://purl.org/dc/elements/1.1/"
   xmlns:cc="http://creativecommons.org/ns#"
   xmlns:rdf="http://www.w3.org/1999/02/22-rdf-syntax-ns#"
   xmlns:svg="http://www.w3.org/2000/svg"
   xmlns="http://www.w3.org/2000/svg"
   xmlns:sodipodi="http://sodipodi.sourceforge.net/DTD/sodipodi-0.dtd"
   xmlns:inkscape="http://www.inkscape.org/namespaces/inkscape"
   width="32"
   height="32"
   viewBox="0 0 32 32"
   id="svg2"
   version="1.1"
   inkscape:version="0.48.5 r10040"
   sodipodi:docname="text-x-copying.svg">
  <metadata
     id="metadata20">
    <rdf:RDF>
      <cc:Work
         rdf:about="">
        <dc:format>image/svg+xml</dc:format>
        <dc:type
           rdf:resource="http://purl.org/dc/dcmitype/StillImage" />
      </cc:Work>
    </rdf:RDF>
  </metadata>
  <defs
     id="defs18" />
  <sodipodi:namedview
     pagecolor="#ffffff"
     bordercolor="#666666"
     borderopacity="1"
     objecttolerance="10"
     gridtolerance="10"
     guidetolerance="10"
     inkscape:pageopacity="0"
     inkscape:pageshadow="2"
     inkscape:window-width="1280"
     inkscape:window-height="970"
     id="namedview16"
     showgrid="true"
     inkscape:zoom="7.375"
     inkscape:cx="20.747866"
     inkscape:cy="1.8482352"
     inkscape:window-x="0"
     inkscape:window-y="0"
     inkscape:window-maximized="1"
     inkscape:current-layer="svg2">
    <inkscape:grid
       type="xygrid"
       id="grid3008" />
  </sodipodi:namedview>
  <path
     style="fill:#dcdcdc;fill-opacity:1"
     d="M 5.335888,2.97e-4 C 4.648414,3.12e-4 4,0.6767879 4,1.3940312 L 4,30.606268 C 4,31.282757 4.687474,32 5.335888,32 l 21.327332,0 c 0.648414,0 1.335888,-0.717243 1.335888,-1.393732 L 28,8.9999997 l -9,-9 z"
     id="path4-1"
     inkscape:connector-curvature="0"
     sodipodi:nodetypes="ssssssccs" />
  <path
     style="fill:#000000;fill-opacity:0.19599998"
     d="M 21,8.9999997 28,16 28,8.9999997 z"
     id="path6-4"
     inkscape:connector-curvature="0"
     sodipodi:nodetypes="cccc" />
  <path
     style="fill:#ffffff;fill-opacity:0.39200003"
     d="m 19.000306,2.97e-4 8.991594,8.9997027 -7.613262,0 c -0.672951,0 -1.378332,-0.7134896 -1.378332,-1.3864402 z"
     id="path8-6"
     inkscape:connector-curvature="0"
     sodipodi:nodetypes="ccssc" />
  <g
     style="fill:#888888"
     id="g10"
     transform="matrix(1.0497949,0,0,1.0501026,-0.79671876,0.79753835)">
    <path
       d="m 16,10.667969 c -3.683594,0 -6.667969,2.984375 -6.667969,6.664062 C 9.332031,21.015625 12.316406,24 16,24 c 3.683594,0 6.667969,-2.984375 6.667969,-6.667969 0,-3.679687 -2.984375,-6.664062 -6.667969,-6.664062 z M 16,12 c 2.945312,0 5.332031,2.386719 5.332031,5.332031 0,2.945313 -2.386719,5.335938 -5.332031,5.335938 -2.945312,0 -5.332031,-2.390625 -5.332031,-5.335938 C 10.667969,14.386719 13.054688,12 16,12 z"
       id="path12"
       inkscape:connector-curvature="0" />
    <path
       d="m 16.105469,14.707031 c -0.699219,0 -1.238281,0.234375 -1.621094,0.703125 -0.382813,0.464844 -0.574219,1.113282 -0.574219,1.945313 0,1.738281 0.730469,2.605469 2.195313,2.605469 0.613281,0 1.359375,-0.136719 2.230469,-0.410157 l 0,1.382813 c -0.714844,0.265625 -1.519532,0.398437 -2.402344,0.398437 -1.273438,0 -2.246094,-0.339843 -2.921875,-1.027343 C 12.335938,19.617188 12,18.632812 12,17.347656 c 0,-0.808594 0.164062,-1.519531 0.496094,-2.125 0.332031,-0.609375 0.804687,-1.078125 1.425781,-1.398437 0.621094,-0.328125 1.351563,-0.492188 2.183594,-0.492188 0.851562,0 1.703125,0.183594 2.5625,0.550781 l -0.601563,1.339844 C 17.742188,15.085938 17.410156,14.964844 17.082031,14.859375 16.75,14.757812 16.425781,14.707031 16.105469,14.707031"
       id="path14"
       inkscape:connector-curvature="0" />
  </g>
</svg>

<svg width="32" xmlns="http://www.w3.org/2000/svg" height="32" viewBox="0 0 32 32" xmlns:xlink="http://www.w3.org/1999/xlink">
<path style="fill:#dcdcdc" d="M 5.332031 0.667969 C 4.648438 0.667969 4 1.3125 4 2 L 4 30 C 4 30.648438 4.6875 31.332031 5.332031 31.332031 L 26.667969 31.332031 C 27.3125 31.332031 28 30.648438 28 30 L 28 9.332031 L 19.332031 0.667969 Z "/>
<path style="fill:#000;fill-opacity:.196" d="M 19.332031 8 L 19.375 8.042969 L 19.480469 8 Z M 20.667969 9.332031 L 28 16.667969 L 28 9.332031 Z "/>
<path style="fill:#fff;fill-opacity:.392" d="M 19.332031 0.667969 L 28 9.332031 L 20.667969 9.332031 C 20.019531 9.332031 19.332031 8.648438 19.332031 8 Z "/>
<g style="fill:#888">
<path d="M 16 10.667969 C 12.316406 10.667969 9.332031 13.652344 9.332031 17.332031 C 9.332031 21.015625 12.316406 24 16 24 C 19.683594 24 22.667969 21.015625 22.667969 17.332031 C 22.667969 13.652344 19.683594 10.667969 16 10.667969 Z M 16 12 C 18.945312 12 21.332031 14.386719 21.332031 17.332031 C 21.332031 20.277344 18.945312 22.667969 16 22.667969 C 13.054688 22.667969 10.667969 20.277344 10.667969 17.332031 C 10.667969 14.386719 13.054688 12 16 12 Z "/>
<path d="M 16.105469 14.707031 C 15.40625 14.707031 14.867188 14.941406 14.484375 15.410156 C 14.101562 15.875 13.910156 16.523438 13.910156 17.355469 C 13.910156 19.09375 14.640625 19.960938 16.105469 19.960938 C 16.71875 19.960938 17.464844 19.824219 18.335938 19.550781 L 18.335938 20.933594 C 17.621094 21.199219 16.816406 21.332031 15.933594 21.332031 C 14.660156 21.332031 13.6875 20.992188 13.011719 20.304688 C 12.335938 19.617188 12 18.632812 12 17.347656 C 12 16.539062 12.164062 15.828125 12.496094 15.222656 C 12.828125 14.613281 13.300781 14.144531 13.921875 13.824219 C 14.542969 13.496094 15.273438 13.332031 16.105469 13.332031 C 16.957031 13.332031 17.808594 13.515625 18.667969 13.882812 L 18.066406 15.222656 C 17.742188 15.085938 17.410156 14.964844 17.082031 14.859375 C 16.75 14.757812 16.425781 14.707031 16.105469 14.707031 "/>
</g>
</svg>
